X:376
T: DER EICHWALD BRAUSET
N: B0451
O: Europa, Mitteleuropa, Deutschland
R: Liebes - Lied, Leid, Klage, Tod
M: 2/4
L: 1/16
K: C
E2 | G4G4 | G4E2C2 | G4G4 | G4z2
G2 | c6c2 | B2A2A2A2 | G2A2G3F | E4z2
G2 | c4c3e | e4B2B2 | e4z2B2 | c4z2
c2 | ^F4F3B | B4AG^FE | E6^DE | ^F4z2
B2 | c4c2c2 | ^D4E2G2 | ^F4B4 | E4z2
E2 | G4E3E | F4D2D2 | E4G4 | D4z2
G2 | c6c2 | B2A2A2A2 | D4D2G2 | E4z2
c2 | c6E2 | E4z4 | F4F2F2 | G6G2 | A4z2
A2 | G4G2A2B2 | c2e2d2c2B2A2 | G4G2A2B2 | c6
C2 | A4A2A2 | c4c2A2F2 | E4D4 | C4z2

